admin/public/logo-uprit-light.svg

<?xml version="1.0" encoding="utf-8"?>
<!-- Generator: Adobe Illustrator 27.1.0, SVG Export Plug-In . SVG Version: 6.00 Build 0)  -->
<svg version="1.1" id="Capa_1" xmlns="http://www.w3.org/2000/svg" xmlns:xlink="http://www.w3.org/1999/xlink" x="0px" y="0px"
	 viewBox="0 0 2000 684" style="enable-background:new 0 0 2000 684;" xml:space="preserve">
<style type="text/css">
	.st0{fill:#A81A39;}
	.st1{fill:#FFFFFF;}
</style>
<g>
	<g>
		<g>
			<g>
				<g>
					<path class="st0" d="M658.72,365.25v-324H138.66l0.13,323.35c-0.13,4.94-1.82,120,96.86,184.62l163.04,112.59L561.6,549.35
						C660.54,484.35,658.85,369.41,658.72,365.25z M547.04,527.77L398.69,630.22L250.35,527.77
						c-88.28-57.73-85.68-162.52-85.68-162.52V67.26h468.05v297.99C632.72,365.25,635.32,470.05,547.04,527.77z"/>
				</g>
			</g>
			<rect x="164.67" y="67.26" class="st1" width="468.05" height="179.29"/>
			<path class="st0" d="M547.04,527.77L398.69,630.22V246.55h234.03v118.7C632.72,365.25,635.32,470.05,547.04,527.77z"/>
			<path class="st1" d="M398.69,272.55v357.67L250.35,527.77c-88.28-57.73-85.68-162.52-85.68-162.52v-92.7H398.69z"/>
			<g>
				<g>
					<rect x="164.67" y="246.55" class="st0" width="468.05" height="26"/>
				</g>
			</g>
			<g>
				<g>
					<path class="st0" d="M267.8,173.16c0,3.47-0.23,6.02-0.76,8.41c-0.43,2.25-1.17,4.11-2.3,5.64c-0.95,1.39-2.3,2.45-4.19,3.32
						c-3.77,1.65-11.48,1.63-15.32,0.04c-1.92-0.91-3.24-1.98-4.19-3.37c-1.05-1.52-1.8-3.45-2.21-5.75c-0.43-2.22-0.65-5-0.65-8.28
						V103.2h-28.57v17.24h5.86v52.72c0,12.09,3.25,21.48,9.68,27.92c6.44,6.33,15.75,9.54,27.68,9.54c12.14,0,21.57-3.21,28-9.54
						c6.35-6.23,9.58-15.63,9.58-27.92V103.2h-22.6V173.16z"/>
					<path class="st0" d="M366.3,110.48c-3.43-2.72-7.54-4.67-12.2-5.76c-4.25-1.02-9.07-1.51-14.72-1.51h-39.09v17.22h6.88v88.26
						h22.41l-0.11-36.03h12.93c4.51,0,8.76-0.49,13.09-1.52c4.23-1.12,8.01-3.03,11.31-5.75c3.23-2.77,5.78-6.46,7.58-10.97
						c1.83-4.57,2.76-10.16,2.76-16.6c0-6.4-0.97-11.92-2.88-16.41C372.49,116.99,369.73,113.21,366.3,110.48z M354.14,138.24
						c0,2.06-0.21,4.29-0.65,6.98c-0.46,2.15-1.13,3.95-1.95,5.28c-0.99,1.5-2.16,2.62-3.5,3.4c-1.63,0.9-3.57,1.33-5.93,1.33
						h-12.54v-34.81h10.3c3.05,0,5.52,0.34,7.49,1.02c1.74,0.63,3.02,1.5,3.9,2.67c1.05,1.36,1.72,3.02,2.12,5.22
						C353.88,131.89,354.14,134.96,354.14,138.24z"/>
					<path class="st0" d="M448.46,161.64c2.55-1.99,4.74-4.45,6.52-7.31c1.59-2.53,2.79-5.49,3.65-9.07
						c0.73-3.05,1.1-6.51,1.1-10.28c0-6.65-1.12-11.95-3.43-16.23c-2.23-4.12-5.37-7.45-9.45-9.97c-3.75-2.15-8.06-3.62-13.27-4.55
						c-4.6-0.7-9.67-1.05-15.06-1.05h-35.84v17.24h7.68v88.26h22.6v-39.78h6.81l22.56,39.78h26.13l-25.85-43.61
						C444.86,164.08,446.83,162.93,448.46,161.64z M436.83,135.9c0,2.35-0.23,4.53-0.69,6.52c-0.52,1.89-1.24,3.39-2.3,4.69
						c-0.9,1.19-2.09,2.14-3.53,2.81c-1.25,0.48-3.31,1.05-6.12,1.05h-11.22v-30.14h7.38c5.42,0,9.47,1.18,12.4,3.6
						C435.49,126.72,436.83,130.47,436.83,135.9z"/>
					<polygon class="st0" points="471.76,120.43 478.43,120.43 478.43,208.79 501.44,208.79 501.44,103.2 471.76,103.2 					"/>
					<polygon class="st0" points="510.93,103.2 510.93,133.38 527.59,133.38 529.32,122.15 538.05,122.15 538.05,208.69 
						560.65,208.69 560.65,122.15 569.39,122.15 571.11,133.38 587.78,133.38 587.78,103.2 					"/>
				</g>
			</g>
			<g>
				<g>
					<g>
						
							<rect id="XMLID_00000027574227925323286240000003504140264806897321_" x="389.19" y="304.4" class="st0" width="9.39" height="14.08"/>
						<polygon id="XMLID_00000170239428083952267480000017701268042488473781_" class="st0" points="353.91,314.19 362.71,330.37 
							355,334.47 346.19,318.3 						"/>
						<polygon id="XMLID_00000141431284355926881620000003521800848253940614_" class="st0" points="321.12,337.26 336.2,348.7 
							330.96,355.7 315.88,344.25 						"/>
						<path class="st0" d="M342.55,381.53c36.73,7.21,54.96,24.13,56.14,25.97v10.1h-0.13c-1.57-2.23-23.74-20.99-61.91-28.2
							c-3.15-0.66-6.43-1.18-9.84-1.57c-5.25-0.79-10.62-1.18-16.4-1.31c-3.28,36.59-7.08,73.19-10.36,110.05
							c16.92,0.39,33.58,3.02,49.58,8.26c15.87,5.12,32.53,15.35,48.92,25.05h0.13v10.36h-0.13
							c-49.45-23.87-116.47-18.23-116.47-18.23l10.23-128.02h8l1.84-16.26c0,0,8.39-0.53,27.54,1.44L342.55,381.53z"/>
					</g>
					<g>
						<path class="st0" d="M398.56,334.44c-14.43,0.13-25.97,2.75-35.28,7.21c-0.13,0.13-0.26,0.13-0.26,0.13
							c-10.49,5.77-19.41,13.9-25.97,23.74c-0.52,0.66-0.92,1.44-1.31,2.23c-2.49,3.54-4.33,7.35-6.03,11.41
							c-1.18,2.75-2.1,5.64-2.89,8.66c3.41,0.39,6.69,0.92,9.84,1.57c7.61-27.02,32.4-46.83,61.91-46.83h0.13v-8.13H398.56z"/>
					</g>
				</g>
			</g>
			<g>
				<g>
					
						<rect id="XMLID_00000005981700849301116640000000448214295583830167_" x="399.21" y="304.4" class="st1" width="9.39" height="14.08"/>
					<polygon id="XMLID_00000011731574345285332330000006064316517854660503_" class="st1" points="443.89,314.19 435.08,330.37 
						442.79,334.47 451.61,318.3 					"/>
					<polygon id="XMLID_00000177481473001409020940000012616073472416475553_" class="st1" points="476.68,337.26 461.6,348.7 
						466.84,355.7 481.92,344.25 					"/>
					<path class="st1" d="M455.24,381.53c-36.73,7.21-54.96,24.13-56.14,25.97v10.1h0.13c1.57-2.23,23.74-20.99,61.91-28.2
						c3.15-0.66,6.43-1.18,9.84-1.57c5.25-0.79,10.62-1.18,16.4-1.31c3.28,36.59,7.08,73.19,10.36,110.05
						c-16.92,0.39-33.58,3.02-49.58,8.26c-15.87,5.12-32.53,15.35-48.92,25.05h-0.13v10.36h0.13
						c49.45-23.87,116.47-18.23,116.47-18.23l-10.23-128.02h-8l-1.84-16.26c0,0-8.39-0.53-27.54,1.44L455.24,381.53z"/>
				</g>
				<g>
					<path class="st1" d="M399.1,334.44v8.13h0.13c29.51,0,54.3,19.81,61.91,46.83c3.15-0.66,6.43-1.18,9.84-1.57
						c-0.79-3.02-1.71-5.9-2.89-8.66c-1.71-4.07-3.54-7.87-6.03-11.41c-0.39-0.79-0.79-1.57-1.31-2.23
						c-6.56-9.84-15.48-17.97-25.97-23.74c0,0-0.13,0-0.26-0.13c-9.31-4.46-20.86-7.08-35.28-7.21H399.1z"/>
				</g>
			</g>
		</g>
	</g>
	<g>
		<g>
			<path class="st0" d="M795.64,163.69v-63.08h28.28l0,63.08c0,25.41-12,43.08-30.25,50.48c-6.34,2.57-13.23,3.86-20.66,3.86
				c-25.36,0-41.34-13.45-48.34-32.22c-2.51-6.74-3.77-14.12-3.77-22.11v-63.08h28.28v63.08c0,16.06,8.41,28.28,23.83,28.28
				C787.83,191.98,795.64,179.33,795.64,163.69z"/>
			<path class="st0" d="M960.36,215.46h-23.31l-58.11-66.51v66.51h-28.28V100.62h23.48l58.11,68.56v-68.56h28.11V215.46z"/>
			<path class="st0" d="M987.43,215.46V100.62h28.28v114.85H987.43z"/>
			<path class="st0" d="M1110.16,215.46h-27.25l-48.85-114.85h31.2l31.2,76.11l31.37-76.11h31.2L1110.16,215.46z"/>
			<path class="st0" d="M1266.65,215.46h-89.48V100.62h88.96v24.34h-60.68v21.6h55.71v22.97h-55.71v21.6h61.19V215.46z"/>
			<path class="st0" d="M1360.58,174.66l36,40.8h-34.11l-34.63-39.43h-8.23v39.43h-28.28V100.62h58.11
				c23.63,0,41.31,14.38,41.31,37.54C1390.75,158.2,1377.63,170.88,1360.58,174.66z M1346.35,124.78h-26.74v27.6h26.74
				c9.24,0,16.63-5.03,16.63-13.88C1362.98,129.73,1355.44,124.78,1346.35,124.78z"/>
			<path class="st0" d="M1441.82,132.5c0,5.85,3.77,8.46,9.26,9.6l23.83,5.31c17.71,3.98,31.54,13.32,31.54,33.42
				c0,19.72-13.44,30.4-29.14,34.8c-5.71,1.6-11.77,2.4-18.17,2.4c-20.57,0-36.54-7.52-44.74-20.14c-2.86-4.4-4.69-9.29-5.49-14.66
				h31.27c3.42,7.29,10.7,11.31,20.49,11.31c8.79,0,16.97-3.71,16.97-11.83c0-6.52-4.36-8.82-10.63-10.11l-24-5.14
				c-20.57-4.68-30.85-15.77-30.85-33.25c0-23.61,20.79-36.17,45.42-36.17c25.04,0,43.16,12.54,47.48,33.25h-29.77
				c-3.13-5.99-9.88-10.46-18.05-10.46C1449.27,120.84,1441.82,125.03,1441.82,132.5z"/>
			<path class="st0" d="M1530.26,215.46V100.62h28.28v114.85H1530.26z"/>
			<path class="st0" d="M1631.05,100.62c29.29,0,49.73,13.49,58.45,34.28c2.97,7.08,4.46,14.8,4.46,23.14
				c0,18.35-7.21,32.21-17.31,41.48c-10.51,9.65-26.04,15.94-45.6,15.94h-45.42V100.62H1631.05z M1630.02,125.13h-16.11v65.82h16.11
				c20.6,0,35.48-12.59,35.48-32.91C1665.5,137.72,1650.62,125.13,1630.02,125.13z"/>
			<path class="st0" d="M1799.36,215.46l-8.06-20.91h-48.34l-8.06,20.91h-30.34l47.99-114.85h28.97l47.99,114.85H1799.36z
				 M1767.14,132.5l-14.57,37.71h29.31L1767.14,132.5z"/>
			<path class="st0" d="M1892.09,100.62c29.29,0,49.73,13.49,58.45,34.28c2.97,7.08,4.46,14.8,4.46,23.14
				c0,18.35-7.21,32.21-17.31,41.48c-10.51,9.65-26.04,15.94-45.6,15.94h-45.42V100.62H1892.09z M1891.06,125.13h-16.11v65.82h16.11
				c20.6,0,35.48-12.59,35.48-32.91C1926.54,137.72,1911.66,125.13,1891.06,125.13z"/>
		</g>
	</g>
	<g>
		<g>
			<g>
				<path class="st0" d="M776.27,332.28h-27.08v35.14H720.9V252.57h56.57c19.91,0,33.53,9.26,39.25,23.57
					c1.94,4.86,2.91,10.2,2.91,16.03C819.64,317.07,801.61,332.28,776.27,332.28z M774.21,276.74h-25.03v31.88h25.03
					c10.24,0,17.66-6.13,17.66-16.11C791.87,282.82,784.25,276.74,774.21,276.74z"/>
				<path class="st0" d="M903.96,326.62l36,40.8h-34.11l-34.63-39.42H863v39.42h-28.28V252.57h58.11
					c23.63,0,41.31,14.38,41.31,37.54C934.13,310.16,921.01,322.83,903.96,326.62z M889.74,276.74H863v27.6h26.74
					c9.24,0,16.63-5.04,16.63-13.89C906.36,281.69,898.83,276.74,889.74,276.74z"/>
				<path class="st0" d="M951.09,367.42V252.57h28.28v114.85H951.09z"/>
				<path class="st0" d="M1066.62,367.42h-27.25l-48.85-114.85h31.2l31.2,76.11l31.37-76.11h31.2L1066.62,367.42z"/>
				<path class="st0" d="M1211.46,367.42l-8.06-20.91h-48.34l-8.06,20.91h-30.34l47.99-114.85h28.97l47.99,114.85H1211.46z
					 M1179.23,284.46l-14.57,37.71h29.31L1179.23,284.46z"/>
				<path class="st0" d="M1296.98,252.57c29.29,0,49.73,13.49,58.45,34.28c2.97,7.08,4.46,14.8,4.46,23.14
					c0,18.35-7.21,32.21-17.31,41.48c-10.51,9.65-26.04,15.94-45.6,15.94h-45.42V252.57H1296.98z M1295.96,277.08h-16.11v65.82
					h16.11c20.6,0,35.48-12.59,35.48-32.91S1316.56,277.08,1295.96,277.08z"/>
				<path class="st0" d="M1460.67,367.42l-8.06-20.91h-48.34l-8.06,20.91h-30.34l47.99-114.85h28.97l47.99,114.85H1460.67z
					 M1428.45,284.46l-14.57,37.71h29.31L1428.45,284.46z"/>
			</g>
		</g>
		<g>
			<g>
				<path class="st0" d="M1585.69,252.57c29.29,0,49.73,13.49,58.45,34.28c2.97,7.08,4.46,14.8,4.46,23.14
					c0,18.35-7.21,32.21-17.31,41.48c-10.51,9.65-26.04,15.94-45.59,15.94h-45.42V252.57H1585.69z M1584.66,277.09h-16.11v65.82
					h16.11c20.6,0,35.48-12.59,35.48-32.91C1620.14,289.67,1605.26,277.09,1584.66,277.09z"/>
				<path class="st0" d="M1761.04,367.42h-89.48V252.57h88.96v24.34h-60.68v21.6h55.71v22.97h-55.71v21.6h61.19V367.42z"/>
			</g>
		</g>
	</g>
	<g>
		<path class="st0" d="M786.21,427v90.16H758.1V427h-37.2v-24.68h102.5V427H786.21z"/>
		<path class="st0" d="M913.05,476.37l36,40.8h-34.11l-34.63-39.42h-8.23v39.42H843.8V402.32h58.11c23.63,0,41.31,14.38,41.31,37.54
			C943.22,459.9,930.1,472.58,913.05,476.37z M898.82,426.49h-26.74v27.6h26.74c9.24,0,16.63-5.04,16.63-13.89
			C915.45,431.44,907.91,426.49,898.82,426.49z"/>
		<path class="st0" d="M1041.77,465.4v-63.08h28.28v63.08c0,25.41-12,43.08-30.25,50.48c-6.34,2.57-13.23,3.86-20.66,3.86
			c-25.36,0-41.34-13.45-48.34-32.23c-2.51-6.74-3.77-14.11-3.77-22.11v-63.08h28.28v63.08c0,16.06,8.41,28.28,23.83,28.28
			C1033.96,493.68,1041.77,481.03,1041.77,465.4z"/>
		<path class="st0" d="M1149.75,475.85v-73.54h28.28v73.54c0,21.18-11.81,34.72-27.51,40.63c-5.77,2.17-12.03,3.26-18.77,3.26
			c-25.8,0-42.6-15.86-45.94-38.57h28.43c2.23,7.84,8.04,13.37,17.51,13.37C1142.54,494.54,1149.75,486.67,1149.75,475.85z"/>
		<path class="st0" d="M1204.77,517.16V402.32h28.28v114.85H1204.77z"/>
		<path class="st0" d="M1344.98,517.16h-84.85V402.32h28.28v90.16h56.57V517.16z"/>
		<path class="st0" d="M1452.62,517.16h-84.85V402.32h28.28v90.16h56.57V517.16z"/>
		<path class="st0" d="M1572.26,417.32c9.81,9.72,17.83,24.33,17.83,42.6c0,18.21-8,32.71-17.83,42.34
			c-9.95,9.74-24.83,17.49-43.37,17.49c-18.53,0-33.43-7.76-43.37-17.49c-9.84-9.64-17.83-24.11-17.83-42.34
			c0-18.25,8.02-32.89,17.83-42.6c9.93-9.83,24.78-17.57,43.37-17.57C1547.46,399.75,1562.34,407.5,1572.26,417.32z M1559.31,473.28
			c1.66-4.23,2.49-8.68,2.49-13.37c0-15.09-8.18-26.59-19.28-31.37c-4.51-1.94-9.06-2.91-13.63-2.91
			c-14.66,0-25.65,8.82-30.08,19.97c-1.89,4.74-2.83,9.51-2.83,14.31c0,15.81,8.66,26.59,19.97,31.37
			c4.06,1.71,8.37,2.57,12.94,2.57C1544.42,493.85,1554.84,484.69,1559.31,473.28z"/>
	</g>
</g>
</svg>

<svg width="2000" height="684" viewBox="0 0 2000 684" fill="none" xmlns="http://www.w3.org/2000/svg">
<path d="M658.72 365.25V41.25H138.66L138.79 364.6C138.66 369.54 136.97 484.6 235.65 549.22L398.69 661.81L561.6 549.35C660.54 484.35 658.85 369.41 658.72 365.25ZM547.04 527.77L398.69 630.22L250.35 527.77C162.07 470.04 164.67 365.25 164.67 365.25V67.26H632.72V365.25C632.72 365.25 635.32 470.05 547.04 527.77Z" fill="white"/>
<path d="M547.04 527.77L398.69 630.22V246.55H632.72V365.25C632.72 365.25 635.32 470.05 547.04 527.77Z" fill="white"/>
<path d="M632.72 246.55H164.67V272.55H632.72V246.55Z" fill="white"/>
<path d="M267.8 173.159C267.8 176.629 267.57 179.179 267.04 181.569C266.61 183.819 265.87 185.679 264.74 187.209C263.79 188.599 262.44 189.659 260.55 190.529C256.78 192.179 249.07 192.159 245.23 190.569C243.31 189.659 241.99 188.589 241.04 187.199C239.99 185.679 239.24 183.749 238.83 181.449C238.4 179.229 238.18 176.449 238.18 173.169V103.199H209.61V120.439H215.47V173.159C215.47 185.249 218.72 194.639 225.15 201.079C231.59 207.409 240.9 210.619 252.83 210.619C264.97 210.619 274.4 207.409 280.83 201.079C287.18 194.849 290.41 185.449 290.41 173.159V103.199H267.81V173.159H267.8Z" fill="white"/>
<path d="M366.3 110.48C362.87 107.76 358.76 105.81 354.1 104.72C349.85 103.7 345.03 103.21 339.38 103.21H300.29V120.43H307.17V208.69H329.58L329.47 172.66H342.4C346.91 172.66 351.16 172.17 355.49 171.14C359.72 170.02 363.5 168.11 366.8 165.39C370.03 162.62 372.58 158.93 374.38 154.42C376.21 149.85 377.14 144.26 377.14 137.82C377.14 131.42 376.17 125.9 374.26 121.41C372.49 116.99 369.73 113.21 366.3 110.48ZM354.14 138.24C354.14 140.3 353.93 142.53 353.49 145.22C353.03 147.37 352.36 149.17 351.54 150.5C350.55 152 349.38 153.12 348.04 153.9C346.41 154.8 344.47 155.23 342.11 155.23H329.57V120.42H339.87C342.92 120.42 345.39 120.76 347.36 121.44C349.1 122.07 350.38 122.94 351.26 124.11C352.31 125.47 352.98 127.13 353.38 129.33C353.88 131.89 354.14 134.96 354.14 138.24Z" fill="white"/>
<path d="M448.46 161.64C451.01 159.65 453.2 157.19 454.98 154.33C456.57 151.8 457.77 148.84 458.63 145.26C459.36 142.21 459.73 138.75 459.73 134.98C459.73 128.33 458.61 123.03 456.3 118.75C454.07 114.63 450.93 111.3 446.85 108.78C443.1 106.63 438.79 105.16 433.58 104.23C428.98 103.53 423.91 103.18 418.52 103.18H382.68V120.42H390.36V208.68H412.96V168.9H419.77L442.33 208.68H468.46L442.61 165.07C444.86 164.08 446.83 162.93 448.46 161.64ZM436.83 135.9C436.83 138.25 436.6 140.43 436.14 142.42C435.62 144.31 434.9 145.81 433.84 147.11C432.94 148.3 431.75 149.25 430.31 149.92C429.06 150.4 427 150.97 424.19 150.97H412.97V120.83H420.35C425.77 120.83 429.82 122.01 432.75 124.43C435.49 126.72 436.83 130.47 436.83 135.9Z" fill="white"/>
<path d="M471.76 120.429H478.43V208.789H501.44V103.199H471.76V120.429Z" fill="white"/>
<path d="M510.93 103.199V133.379H527.59L529.32 122.149H538.05V208.689H560.65V122.149H569.39L571.11 133.379H587.78V103.199H510.93Z" fill="white"/>
<path d="M398.58 304.4H389.19V318.48H398.58V304.4Z" fill="white"/>
<path d="M353.91 314.19L362.71 330.37L355 334.47L346.19 318.3L353.91 314.19Z" fill="white"/>
<path d="M321.12 337.261L336.2 348.701L330.96 355.701L315.88 344.251L321.12 337.261Z" fill="white"/>
<path d="M342.55 381.531C379.28 388.741 397.51 405.661 398.69 407.501V417.601H398.56C396.99 415.371 374.82 396.611 336.65 389.401C333.5 388.741 330.22 388.221 326.81 387.831C321.56 387.041 316.19 386.651 310.41 386.521C307.13 423.111 303.33 459.711 300.05 496.571C316.97 496.961 333.63 499.591 349.63 504.831C365.5 509.951 382.16 520.181 398.55 529.881H398.68V540.241H398.55C349.1 516.371 282.08 522.011 282.08 522.011L292.31 393.991H300.31L302.15 377.731C302.15 377.731 310.54 377.201 329.69 379.171L342.55 381.531Z" fill="white"/>
<path d="M398.56 334.441C384.13 334.571 372.59 337.191 363.28 341.651C363.15 341.781 363.02 341.781 363.02 341.781C352.53 347.551 343.61 355.681 337.05 365.521C336.53 366.181 336.13 366.961 335.74 367.751C333.25 371.291 331.41 375.101 329.71 379.161C328.53 381.911 327.61 384.801 326.82 387.821C330.23 388.211 333.51 388.741 336.66 389.391C344.27 362.371 369.06 342.561 398.57 342.561H398.7V334.431H398.56V334.441Z" fill="white"/>
<path d="M408.6 304.4H399.21V318.48H408.6V304.4Z" fill="#211C1D"/>
<path d="M443.89 314.19L435.08 330.37L442.79 334.47L451.61 318.3L443.89 314.19Z" fill="#211C1D"/>
<path d="M476.68 337.261L461.6 348.701L466.84 355.701L481.92 344.251L476.68 337.261Z" fill="#211C1D"/>
<path d="M455.24 381.531C418.51 388.741 400.28 405.661 399.1 407.501V417.601H399.23C400.8 415.371 422.97 396.611 461.14 389.401C464.29 388.741 467.57 388.221 470.98 387.831C476.23 387.041 481.6 386.651 487.38 386.521C490.66 423.111 494.46 459.711 497.74 496.571C480.82 496.961 464.16 499.591 448.16 504.831C432.29 509.951 415.63 520.181 399.24 529.881H399.11V540.241H399.24C448.69 516.371 515.71 522.011 515.71 522.011L505.48 393.991H497.48L495.64 377.731C495.64 377.731 487.25 377.201 468.1 379.171L455.24 381.531Z" fill="#211C1D"/>
<path d="M399.1 334.44V342.57H399.23C428.74 342.57 453.53 362.38 461.14 389.4C464.29 388.74 467.57 388.22 470.98 387.83C470.19 384.81 469.27 381.93 468.09 379.17C466.38 375.1 464.55 371.3 462.06 367.76C461.67 366.97 461.27 366.19 460.75 365.53C454.19 355.69 445.27 347.56 434.78 341.79C434.78 341.79 434.65 341.79 434.52 341.66C425.21 337.2 413.66 334.58 399.24 334.45H399.1V334.44Z" fill="#211C1D"/>
<path d="M795.64 163.69V100.61H823.92V163.69C823.92 189.1 811.92 206.77 793.67 214.17C787.33 216.74 780.44 218.03 773.01 218.03C747.65 218.03 731.67 204.58 724.67 185.81C722.16 179.07 720.9 171.69 720.9 163.7V100.62H749.18V163.7C749.18 179.76 757.59 191.98 773.01 191.98C787.83 191.98 795.64 179.33 795.64 163.69Z" fill="white"/>
<path d="M960.36 215.46H937.05L878.94 148.95V215.46H850.66V100.62H874.14L932.25 169.18V100.62H960.36V215.46Z" fill="white"/>
<path d="M987.43 215.46V100.62H1015.71V215.47H987.43V215.46Z" fill="white"/>
<path d="M1110.16 215.46H1082.91L1034.06 100.61H1065.26L1096.46 176.72L1127.83 100.61H1159.03L1110.16 215.46Z" fill="white"/>
<path d="M1266.65 215.46H1177.17V100.62H1266.13V124.96H1205.45V146.56H1261.16V169.53H1205.45V191.13H1266.64V215.46H1266.65Z" fill="white"/>
<path d="M1360.58 174.66L1396.58 215.46H1362.47L1327.84 176.03H1319.61V215.46H1291.33V100.62H1349.44C1373.07 100.62 1390.75 115 1390.75 138.16C1390.75 158.2 1377.63 170.88 1360.58 174.66ZM1346.35 124.78H1319.61V152.38H1346.35C1355.59 152.38 1362.98 147.35 1362.98 138.5C1362.98 129.73 1355.44 124.78 1346.35 124.78Z" fill="white"/>
<path d="M1441.82 132.5C1441.82 138.35 1445.59 140.96 1451.08 142.1L1474.91 147.41C1492.62 151.39 1506.45 160.73 1506.45 180.83C1506.45 200.55 1493.01 211.23 1477.31 215.63C1471.6 217.23 1465.54 218.03 1459.14 218.03C1438.57 218.03 1422.6 210.51 1414.4 197.89C1411.54 193.49 1409.71 188.6 1408.91 183.23H1440.18C1443.6 190.52 1450.88 194.54 1460.67 194.54C1469.46 194.54 1477.64 190.83 1477.64 182.71C1477.64 176.19 1473.28 173.89 1467.01 172.6L1443.01 167.46C1422.44 162.78 1412.16 151.69 1412.16 134.21C1412.16 110.6 1432.95 98.04 1457.58 98.04C1482.62 98.04 1500.74 110.58 1505.06 131.29H1475.29C1472.16 125.3 1465.41 120.83 1457.24 120.83C1449.27 120.84 1441.82 125.03 1441.82 132.5Z" fill="white"/>
<path d="M1530.26 215.46V100.62H1558.54V215.47H1530.26V215.46Z" fill="white"/>
<path d="M1631.05 100.62C1660.34 100.62 1680.78 114.11 1689.5 134.9C1692.47 141.98 1693.96 149.7 1693.96 158.04C1693.96 176.39 1686.75 190.25 1676.65 199.52C1666.14 209.17 1650.61 215.46 1631.05 215.46H1585.63V100.62H1631.05ZM1630.02 125.13H1613.91V190.95H1630.02C1650.62 190.95 1665.5 178.36 1665.5 158.04C1665.5 137.72 1650.62 125.13 1630.02 125.13Z" fill="white"/>
<path d="M1799.36 215.46L1791.3 194.55H1742.96L1734.9 215.46H1704.56L1752.55 100.61H1781.52L1829.51 215.46H1799.36ZM1767.14 132.5L1752.57 170.21H1781.88L1767.14 132.5Z" fill="white"/>
<path d="M1892.09 100.62C1921.38 100.62 1941.82 114.11 1950.54 134.9C1953.51 141.98 1955 149.7 1955 158.04C1955 176.39 1947.79 190.25 1937.69 199.52C1927.18 209.17 1911.65 215.46 1892.09 215.46H1846.67V100.62H1892.09ZM1891.06 125.13H1874.95V190.95H1891.06C1911.66 190.95 1926.54 178.36 1926.54 158.04C1926.54 137.72 1911.66 125.13 1891.06 125.13Z" fill="white"/>
<path d="M776.27 332.28H749.19V367.42H720.9V252.57H777.47C797.38 252.57 811 261.83 816.72 276.14C818.66 281 819.63 286.34 819.63 292.17C819.64 317.07 801.61 332.28 776.27 332.28ZM774.21 276.74H749.18V308.62H774.21C784.45 308.62 791.87 302.49 791.87 292.51C791.87 282.82 784.25 276.74 774.21 276.74Z" fill="white"/>
<path d="M903.96 326.62L939.96 367.42H905.85L871.22 328H863V367.42H834.72V252.57H892.83C916.46 252.57 934.14 266.95 934.14 290.11C934.13 310.16 921.01 322.83 903.96 326.62ZM889.74 276.74H863V304.34H889.74C898.98 304.34 906.37 299.3 906.37 290.45C906.36 281.69 898.83 276.74 889.74 276.74Z" fill="white"/>
<path d="M951.09 367.42V252.57H979.37V367.42H951.09Z" fill="white"/>
<path d="M1066.62 367.42H1039.37L990.52 252.57H1021.72L1052.92 328.68L1084.29 252.57H1115.49L1066.62 367.42Z" fill="white"/>
<path d="M1211.46 367.42L1203.4 346.51H1155.06L1147 367.42H1116.66L1164.65 252.57H1193.62L1241.61 367.42H1211.46ZM1179.23 284.46L1164.66 322.17H1193.97L1179.23 284.46Z" fill="white"/>
<path d="M1296.98 252.57C1326.27 252.57 1346.71 266.06 1355.43 286.85C1358.4 293.93 1359.89 301.65 1359.89 309.99C1359.89 328.34 1352.68 342.2 1342.58 351.47C1332.07 361.12 1316.54 367.41 1296.98 367.41H1251.56V252.57H1296.98ZM1295.96 277.08H1279.85V342.9H1295.96C1316.56 342.9 1331.44 330.31 1331.44 309.99C1331.44 289.67 1316.56 277.08 1295.96 277.08Z" fill="white"/>
<path d="M1460.67 367.42L1452.61 346.51H1404.27L1396.21 367.42H1365.87L1413.86 252.57H1442.83L1490.82 367.42H1460.67ZM1428.45 284.46L1413.88 322.17H1443.19L1428.45 284.46Z" fill="white"/>
<path d="M1585.69 252.57C1614.98 252.57 1635.42 266.06 1644.14 286.85C1647.11 293.93 1648.6 301.65 1648.6 309.99C1648.6 328.34 1641.39 342.2 1631.29 351.47C1620.78 361.12 1605.25 367.41 1585.7 367.41H1540.28V252.57H1585.69ZM1584.66 277.09H1568.55V342.91H1584.66C1605.26 342.91 1620.14 330.32 1620.14 310C1620.14 289.67 1605.26 277.09 1584.66 277.09Z" fill="white"/>
<path d="M1761.04 367.42H1671.56V252.57H1760.52V276.91H1699.84V298.51H1755.55V321.48H1699.84V343.08H1761.03V367.42H1761.04Z" fill="white"/>
<path d="M786.21 427V517.16H758.1V427H720.9V402.32H823.4V427H786.21Z" fill="white"/>
<path d="M913.05 476.37L949.05 517.17H914.94L880.31 477.75H872.08V517.17H843.8V402.32H901.91C925.54 402.32 943.22 416.7 943.22 439.86C943.22 459.9 930.1 472.58 913.05 476.37ZM898.82 426.49H872.08V454.09H898.82C908.06 454.09 915.45 449.05 915.45 440.2C915.45 431.44 907.91 426.49 898.82 426.49Z" fill="white"/>
<path d="M1041.77 465.4V402.32H1070.05V465.4C1070.05 490.81 1058.05 508.48 1039.8 515.88C1033.46 518.45 1026.57 519.74 1019.14 519.74C993.78 519.74 977.8 506.29 970.8 487.51C968.29 480.77 967.03 473.4 967.03 465.4V402.32H995.31V465.4C995.31 481.46 1003.72 493.68 1019.14 493.68C1033.96 493.68 1041.77 481.03 1041.77 465.4Z" fill="white"/>
<path d="M1149.75 475.85V402.31H1178.03V475.85C1178.03 497.03 1166.22 510.57 1150.52 516.48C1144.75 518.65 1138.49 519.74 1131.75 519.74C1105.95 519.74 1089.15 503.88 1085.81 481.17H1114.24C1116.47 489.01 1122.28 494.54 1131.75 494.54C1142.54 494.54 1149.75 486.67 1149.75 475.85Z" fill="white"/>
<path d="M1204.77 517.16V402.32H1233.05V517.17H1204.77V517.16Z" fill="white"/>
<path d="M1344.98 517.16H1260.13V402.32H1288.41V492.48H1344.98V517.16Z" fill="white"/>
<path d="M1452.62 517.16H1367.77V402.32H1396.05V492.48H1452.62V517.16Z" fill="white"/>
<path d="M1572.26 417.32C1582.07 427.04 1590.09 441.65 1590.09 459.92C1590.09 478.13 1582.09 492.63 1572.26 502.26C1562.31 512 1547.43 519.75 1528.89 519.75C1510.36 519.75 1495.46 511.99 1485.52 502.26C1475.68 492.62 1467.69 478.15 1467.69 459.92C1467.69 441.67 1475.71 427.03 1485.52 417.32C1495.45 407.49 1510.3 399.75 1528.89 399.75C1547.46 399.75 1562.34 407.5 1572.26 417.32ZM1559.31 473.28C1560.97 469.05 1561.8 464.6 1561.8 459.91C1561.8 444.82 1553.62 433.32 1542.52 428.54C1538.01 426.6 1533.46 425.63 1528.89 425.63C1514.23 425.63 1503.24 434.45 1498.81 445.6C1496.92 450.34 1495.98 455.11 1495.98 459.91C1495.98 475.72 1504.64 486.5 1515.95 491.28C1520.01 492.99 1524.32 493.85 1528.89 493.85C1544.42 493.85 1554.84 484.69 1559.31 473.28Z" fill="white"/>
</svg>
